img/icons/this/catalog/percent.svg

<svg width="41" height="40" viewBox="0 0 41 40" fill="none" xmlns="http://www.w3.org/2000/svg">
<path d="M18.4659 38.5151C18.0492 38.0485 17.5759 37.5185 17.216 37.4485C16.6342 37.4733 16.07 37.6546 15.5828 37.9735L15.5944 37.9652C15.0062 38.3111 14.3502 38.526 13.6713 38.5951L13.6513 38.5968H13.6346C13.4247 38.597 13.2168 38.5557 13.023 38.4751L13.033 38.4785C12.2147 38.1385 11.8831 37.1919 11.5664 36.2753C11.4395 35.7234 11.1778 35.2116 10.8048 34.7854L10.8082 34.7888C10.52 34.6488 10.1989 34.5906 9.87991 34.6204H9.88657C9.64326 34.6204 9.38662 34.6354 9.12997 34.6504C8.85333 34.6671 8.57668 34.6804 8.31337 34.6804C7.99717 34.7103 7.67819 34.6773 7.37475 34.5835C7.07131 34.4897 6.7894 34.3369 6.54519 34.1338L6.54852 34.1372C6.28632 33.7633 6.10558 33.3386 6.01802 32.8904C5.93045 32.4423 5.93802 31.9807 6.04023 31.5357L6.03689 31.5574C6.13455 30.9875 6.08639 30.4021 5.89691 29.8558L5.90357 29.8808C5.48514 29.513 4.98264 29.2537 4.44036 29.1259L4.41703 29.1209C3.50044 28.8026 2.55052 28.4726 2.21388 27.6544C2.11731 27.213 2.11382 26.7564 2.20363 26.3137C2.29345 25.8709 2.47459 25.4517 2.7355 25.0829L2.72884 25.0929C3.03331 24.6042 3.2093 24.0464 3.24046 23.4714V23.463C3.17047 23.1014 2.64051 22.6298 2.17388 22.2132C1.44394 21.5665 0.690674 20.8949 0.690674 19.9967C0.690674 19.0984 1.44394 18.4268 2.17222 17.7752C2.63884 17.3586 3.1688 16.8853 3.23879 16.5253C3.20497 15.9447 3.02435 15.3822 2.71384 14.8904L2.72217 14.9038C2.46199 14.5321 2.28237 14.1102 2.19483 13.6651C2.1073 13.22 2.11379 12.7614 2.21388 12.319L2.21055 12.3406C2.55052 11.5224 3.49711 11.1907 4.4137 10.8741C4.99032 10.7391 5.49194 10.4741 5.90357 10.1108L5.90024 10.1142C6.08812 9.56853 6.13288 8.98383 6.03023 8.41597L6.03356 8.43596C5.93535 7.99179 5.93055 7.53206 6.01949 7.08594C6.10843 6.63982 6.28915 6.21706 6.55019 5.84451L6.54352 5.85451C6.789 5.65224 7.072 5.50042 7.37628 5.40776C7.68057 5.3151 8.00015 5.28343 8.31671 5.31456H8.30671C8.57335 5.31456 8.84833 5.32956 9.1233 5.34455C9.37995 5.35955 9.63659 5.37455 9.87991 5.37455C10.2003 5.4039 10.5226 5.34451 10.8115 5.2029L10.8015 5.2079C11.1598 4.79793 11.4248 4.29798 11.5548 3.74469L11.5598 3.72136C11.8797 2.80477 12.2097 1.85485 13.0263 1.51821C13.2172 1.43997 13.4217 1.40032 13.6279 1.40155H13.6463H13.6446C14.3712 1.47654 15.0311 1.70152 15.6128 2.04483L15.5894 2.03316C16.0706 2.34956 16.6289 2.52875 17.2043 2.55145H17.211C17.5726 2.48146 18.0442 1.9515 18.4609 1.48488C19.1175 0.753271 19.7907 0 20.689 0C21.5873 0 22.2589 0.753271 22.9105 1.48321C23.3271 1.94984 23.8004 2.47979 24.1604 2.54979C24.742 2.52294 25.3058 2.34112 25.7936 2.02316L25.7802 2.0315C26.369 1.68562 27.0257 1.47129 27.7051 1.40322L27.7251 1.40155H27.7418C27.9584 1.40155 28.1651 1.44488 28.3534 1.52321L28.3434 1.51987C29.1616 1.85984 29.4933 2.80643 29.8099 3.72302C29.9449 4.29964 30.2099 4.7996 30.5715 5.2129L30.5682 5.20957C30.857 5.34933 31.1788 5.40644 31.4981 5.37455H31.4914C31.7348 5.37455 31.9914 5.35955 32.248 5.34622C32.5247 5.33122 32.8013 5.31622 33.0646 5.31622C33.3811 5.28664 33.7003 5.31969 34.0039 5.41348C34.3076 5.50727 34.5898 5.65997 34.8345 5.86284L34.8312 5.85951C35.0925 6.23375 35.2726 6.65856 35.3599 7.1066C35.4471 7.55465 35.4396 8.016 35.3378 8.46096L35.3411 8.4393C35.2432 9.0093 35.2919 9.59485 35.4828 10.1408L35.4761 10.1175C35.8844 10.4775 36.386 10.7424 36.9393 10.8708L36.9627 10.8758C37.8792 11.1957 38.8292 11.5257 39.1658 12.3423C39.2614 12.7836 39.2645 13.2399 39.175 13.6825C39.0855 14.125 38.9054 14.5443 38.6458 14.9138L38.6525 14.9038C38.3472 15.3888 38.1695 15.9432 38.1359 16.5153V16.5253C38.2059 16.8869 38.7358 17.3586 39.2025 17.7752C39.9374 18.4301 40.6907 19.1017 40.6907 20C40.6907 20.8983 39.9374 21.5715 39.2075 22.2231C38.7408 22.6398 38.2109 23.1114 38.1409 23.473C38.1775 24.078 38.3659 24.6329 38.6658 25.1096L38.6575 25.0946C38.9177 25.4659 39.0974 25.8875 39.1849 26.3324C39.2725 26.7772 39.266 27.2355 39.1658 27.6777L39.1691 27.656C38.8308 28.476 37.8826 28.8059 36.966 29.1226C36.4137 29.2495 35.9017 29.5118 35.4761 29.8858L35.4794 29.8825C35.2916 30.4281 35.2468 31.0128 35.3495 31.5807L35.3461 31.5607C35.4441 32.0046 35.4488 32.464 35.3598 32.9099C35.2709 33.3557 35.0903 33.7781 34.8295 34.1505L34.8362 34.1405C34.5911 34.3431 34.3085 34.4954 34.0045 34.5887C33.7006 34.6819 33.3811 34.7142 33.0646 34.6838H33.0746C32.808 34.6838 32.533 34.6688 32.258 34.6538C32.0062 34.6366 31.7539 34.6266 31.5014 34.6238C31.181 34.5938 30.8586 34.6532 30.5699 34.7954L30.5798 34.7904C30.2131 35.2094 29.9545 35.7117 29.8266 36.2536L29.8216 36.277C29.5016 37.1936 29.1716 38.1435 28.355 38.4801C28.1642 38.5584 27.9597 38.598 27.7534 38.5968H27.7351C27.0405 38.5275 26.371 38.3074 25.7703 37.9518L25.7919 37.9635C25.311 37.6469 24.7524 37.4682 24.177 37.4469H24.1704C23.8087 37.5169 23.3371 38.0468 22.9205 38.5135C22.2622 39.2434 21.5906 39.9967 20.6907 39.9967C19.7907 39.9967 19.1191 39.2434 18.4659 38.5151ZM24.352 12.1807L16.2194 26.9594C16.1962 27.0015 16.1845 27.0489 16.1852 27.0969C16.1859 27.1449 16.1991 27.1919 16.2235 27.2332C16.2478 27.2746 16.2826 27.3089 16.3242 27.3328C16.3659 27.3566 16.413 27.3693 16.461 27.3694H17.8726C17.9216 27.3695 17.9698 27.3564 18.012 27.3314C18.0542 27.3065 18.0889 27.2707 18.1126 27.2277L26.2335 12.4456C26.2567 12.4036 26.2685 12.3562 26.2678 12.3082C26.267 12.2602 26.2538 12.2132 26.2295 12.1718C26.2051 12.1305 26.1704 12.0962 26.1287 12.0723C26.0871 12.0484 26.0399 12.0358 25.9919 12.0357H24.5937C24.5443 12.0358 24.4958 12.0492 24.4533 12.0744C24.4108 12.0996 24.3758 12.1374 24.352 12.1807ZM23.1788 19.7617C22.967 19.9368 22.7966 20.1565 22.6796 20.4051C22.5626 20.6537 22.5021 20.9251 22.5022 21.1999V25.2012C22.5022 25.7745 22.7655 26.2861 23.1771 26.6228L23.1805 26.6261C23.6071 26.9828 24.1604 27.1977 24.7653 27.1977C25.3703 27.1977 25.9236 26.9811 26.3535 26.6228L26.3502 26.6261C26.7668 26.2878 27.0301 25.7762 27.0301 25.2029V21.2066V21.2032C27.0301 20.6299 26.7718 20.115 26.3669 19.7717L26.3635 19.77C25.9412 19.3905 25.3932 19.1809 24.8253 19.1817H24.7737H24.777H24.7253C24.1559 19.1809 23.6059 19.3884 23.1788 19.765L23.1821 19.7634L23.1788 19.7617ZM16.1061 12.584C15.8943 12.759 15.7238 12.9787 15.6069 13.2274C15.4899 13.476 15.4293 13.7474 15.4294 14.0222V18.0218C15.4294 18.5968 15.6911 19.1117 16.1044 19.45L16.1077 19.4534C16.5344 19.815 17.0893 20.0333 17.6959 20.0333C18.3025 20.0333 18.8592 19.8133 19.2875 19.45L19.2841 19.4534C19.7041 19.1117 19.9691 18.5968 19.9691 18.0185V14.0288C19.9691 13.4505 19.7074 12.9356 19.2941 12.5923L19.2908 12.5906C18.8458 12.2116 18.2802 12.0035 17.6956 12.0038C17.111 12.0041 16.5457 12.2128 16.1011 12.5923L16.1044 12.589L16.1061 12.584ZM24.402 25.4179C24.3662 25.3893 24.3372 25.3531 24.3173 25.3118C24.2974 25.2706 24.2871 25.2254 24.287 25.1796V21.1849V21.1782C24.287 21.0816 24.332 20.9966 24.4004 20.9416C24.4869 20.8665 24.5975 20.8251 24.712 20.8249H24.7337H24.732H24.752C24.8668 20.8248 24.9778 20.8656 25.0653 20.9399C25.1009 20.9683 25.1297 21.0043 25.1496 21.0452C25.1695 21.0862 25.18 21.131 25.1803 21.1766V25.1796C25.1803 25.225 25.1702 25.2698 25.1506 25.3108C25.1309 25.3517 25.1024 25.3878 25.067 25.4162C24.977 25.4895 24.8603 25.5329 24.7337 25.5329C24.607 25.5329 24.4904 25.4895 24.3987 25.4145H24.4004L24.402 25.4179ZM17.336 18.2418C17.3003 18.2131 17.2715 18.1768 17.2516 18.1356C17.2317 18.0944 17.2212 18.0493 17.221 18.0035V14.0088V14.0038C17.221 13.9072 17.266 13.8222 17.3343 13.7655C17.4243 13.6922 17.5409 13.6489 17.6676 13.6489C17.7942 13.6489 17.9109 13.6922 18.0026 13.7672C18.0384 13.7957 18.0657 13.832 18.0856 13.8732C18.1055 13.9145 18.1159 13.9597 18.1159 14.0055V18.0068C18.1158 18.0525 18.1056 18.0975 18.086 18.1387C18.0664 18.1799 18.0379 18.2163 18.0026 18.2451C17.9126 18.3185 17.7959 18.3618 17.6693 18.3618C17.5426 18.3618 17.4259 18.3185 17.3343 18.2435L17.336 18.2418Z" fill="#B692B2"/>
</svg>

<svg width="41" height="40" fill="none" xmlns="http://www.w3.org/2000/svg"><path d="M18.466 38.515c-.417-.467-.89-.996-1.25-1.066a3.233 3.233 0 00-1.633.525l.011-.009a4.74 4.74 0 01-1.923.63l-.02.002h-.016c-.21 0-.418-.041-.612-.122l.01.003c-.818-.34-1.15-1.286-1.467-2.203a3.43 3.43 0 00-.761-1.49l.003.004a1.752 1.752 0 00-.928-.169h.007c-.244 0-.5.015-.757.03-.277.017-.553.03-.817.03a2.41 2.41 0 01-1.768-.546l.004.003a3.26 3.26 0 01-.509-2.601l-.003.021c.098-.57.05-1.155-.14-1.701l.007.025a3.396 3.396 0 00-1.464-.755l-.023-.005c-.917-.318-1.866-.648-2.203-1.467a3.25 3.25 0 01.522-2.571l-.007.01c.304-.489.48-1.047.511-1.622v-.008c-.07-.362-.6-.833-1.066-1.25-.73-.646-1.483-1.318-1.483-2.216 0-.899.753-1.57 1.481-2.222.467-.416.997-.89 1.067-1.25a3.437 3.437 0 00-.525-1.635l.008.014a3.256 3.256 0 01-.508-2.585l-.003.022c.34-.819 1.286-1.15 2.203-1.467a3.406 3.406 0 001.49-.763l-.004.003c.188-.545.233-1.13.13-1.698l.004.02a3.281 3.281 0 01.516-2.591l-.006.01a2.417 2.417 0 011.773-.54h-.01c.266 0 .541.015.816.03.257.015.514.03.757.03.32.029.643-.03.931-.172l-.01.005c.359-.41.624-.91.754-1.463l.005-.024c.32-.916.65-1.866 1.466-2.203.191-.078.396-.118.602-.116h.018-.001c.726.075 1.386.3 1.968.643l-.024-.012c.482.317 1.04.496 1.615.518h.007c.362-.07.833-.6 1.25-1.066C19.118.753 19.79 0 20.689 0c.898 0 1.57.753 2.221 1.483.417.467.89.997 1.25 1.067a3.267 3.267 0 001.634-.527l-.014.008a4.732 4.732 0 011.925-.628l.02-.001h.017c.216 0 .423.043.611.121l-.01-.003c.819.34 1.15 1.286 1.467 2.203.135.577.4 1.077.762 1.49l-.004-.003c.289.14.61.196.93.165h-.007c.244 0 .5-.015.757-.029.277-.015.553-.03.817-.03a2.42 2.42 0 011.77.547l-.004-.003a3.271 3.271 0 01.507 2.601l.003-.022c-.098.57-.05 1.156.142 1.702l-.007-.024c.408.36.91.625 1.463.754l.024.005c.916.32 1.866.65 2.203 1.466a3.27 3.27 0 01-.52 2.572l.007-.01a3.4 3.4 0 00-.517 1.611v.01c.07.362.6.834 1.066 1.25.735.655 1.489 1.327 1.489 2.225 0 .898-.754 1.572-1.483 2.223-.467.417-.997.888-1.067 1.25a3.45 3.45 0 00.525 1.637l-.008-.015a3.25 3.25 0 01.508 2.583l.003-.022c-.338.82-1.286 1.15-2.203 1.467a3.416 3.416 0 00-1.49.763l.003-.003a3.373 3.373 0 00-.13 1.698l-.003-.02a3.28 3.28 0 01-.516 2.59l.006-.01a2.42 2.42 0 01-1.771.543h.01c-.267 0-.542-.015-.817-.03a13.26 13.26 0 00-.757-.03 1.74 1.74 0 00-.931.171l.01-.005a3.412 3.412 0 00-.753 1.464l-.005.023c-.32.917-.65 1.867-1.467 2.203a1.56 1.56 0 01-.602.117h-.018a4.788 4.788 0 01-1.965-.645l.022.012a3.149 3.149 0 00-1.615-.517h-.007c-.361.07-.833.6-1.25 1.066-.658.73-1.33 1.484-2.23 1.484-.9 0-1.57-.754-2.224-1.482zm5.886-26.334l-8.133 14.778a.276.276 0 00.242.41h1.412a.272.272 0 00.24-.141l8.12-14.782a.276.276 0 00-.241-.41h-1.398a.276.276 0 00-.242.145zm-1.173 7.58a1.865 1.865 0 00-.677 1.439v4c0 .573.264 1.085.675 1.422l.003.003c.427.357.98.572 1.585.572s1.159-.217 1.588-.575l-.003.003c.417-.338.68-.85.68-1.423v-4c0-.573-.258-1.088-.663-1.431l-.004-.002c-.422-.38-.97-.59-1.538-.588h-.051.003-.052a2.326 2.326 0 00-1.546.583l.003-.002-.003-.001zm-7.073-7.177a1.862 1.862 0 00-.677 1.438v4c0 .575.262 1.09.675 1.428l.004.003c.426.362.981.58 1.588.58.606 0 1.163-.22 1.591-.583l-.003.003a1.84 1.84 0 00.685-1.434v-3.99a1.86 1.86 0 00-.675-1.437l-.003-.001a2.458 2.458 0 00-3.19.001l.003-.003.002-.005zm8.296 12.834a.306.306 0 01-.115-.238v-4.002c0-.096.045-.181.113-.236a.477.477 0 01.312-.117h.022-.002.02c.115 0 .226.04.313.115a.306.306 0 01.115.237v4.003a.304.304 0 01-.113.236.526.526 0 01-.333.117.526.526 0 01-.335-.119h.001l.002.004zm-7.066-7.176a.308.308 0 01-.115-.239v-3.999a.31.31 0 01.113-.239.526.526 0 01.334-.116c.126 0 .243.043.335.118a.305.305 0 01.113.238v4.002a.308.308 0 01-.113.238.526.526 0 01-.334.117.526.526 0 01-.335-.118l.002-.002z" fill="#B692B2"/></svg>
